images_breeze_svg/cmd/32/basicideappear.svg

<svg viewBox="0 0 32 32" xmlns="http://www.w3.org/2000/svg"><path d="m15 4v2.0507812a10 10 0 0 0 -5.3242188 2.2109376l-1.453125-1.4550782-1.4160156 1.4160156 1.4550782 1.453125a10 10 0 0 0 -2.2011719 5.3242188h-2.0605469v2h2.0507812a10 10 0 0 0 2.2109376 5.324219l-1.4550782 1.453125 1.4160156 1.414062 1.453125-1.453125a10 10 0 0 0 5.3242188 2.201172v2.060547h.011719v-3.058594a9 9 0 0 1 -5.4687502-2.671875 9 9 0 0 1 -2.5429688-6.269531 9 9 0 0 1 2.7304688-6.4570312 9 9 0 0 1 6.2695312-2.5429688 9 9 0 0 1 6.457031 2.7304688 9 9 0 0 1 2.503907 5.5117192 1.0271576 1.0271576 0 0 1 .203124.15625l1.601563 1.601562h1.234375v-2h-2.050781a10 10 0 0 0 -2.210938-5.3242188l1.455078-1.453125-1.416015-1.4160156-1.453125 1.4550782a10 10 0 0 0 -5.324219-2.2011719v-2.0605469zm-2 7.5v9l7-4.5z" fill="#4d4d4d"/><path d="m24.4375 16.125-5.111328 5.111328-3.28711 3.285156v3.603516h3.603516l8.396484-8.398438zm-2.048828 3.490234 2.162109 2.160157-3.175781 3.175781v-.675781l-1.011719.02148h-1.037109v-1.035156-.585938l1.441406-1.439453zm-4.074219 4.074219v1.621094h1.035156.990235l.02148.652344-1.080078 1.082031h-1.441406l-.71875-.720703v-1.441407z" fill="#f47750"/></svg>

<?xml version="1.0" encoding="UTF-8" standalone="no"?>
<svg
   xmlns:dc="http://purl.org/dc/elements/1.1/"
   xmlns:cc="http://creativecommons.org/ns#"
   xmlns:rdf="http://www.w3.org/1999/02/22-rdf-syntax-ns#"
   xmlns:svg="http://www.w3.org/2000/svg"
   xmlns="http://www.w3.org/2000/svg"
   xmlns:sodipodi="http://sodipodi.sourceforge.net/DTD/sodipodi-0.dtd"
   xmlns:inkscape="http://www.inkscape.org/namespaces/inkscape"
   viewBox="0 0 32 32"
   version="1.1"
   id="svg4"
   sodipodi:docname="basicideappear.svg"
   inkscape:version="0.92.4 (unknown)"
   inkscape:export-filename="/home/rizmut/Dokumen/Rizmut/Github/tmp/breeze/cmd/32/basicideappear.png"
   inkscape:export-xdpi="96"
   inkscape:export-ydpi="96">
  <metadata
     id="metadata10">
    <rdf:RDF>
      <cc:Work
         rdf:about="">
        <dc:format>image/svg+xml</dc:format>
        <dc:type
           rdf:resource="http://purl.org/dc/dcmitype/StillImage" />
        <dc:title></dc:title>
      </cc:Work>
    </rdf:RDF>
  </metadata>
  <defs
     id="defs8" />
  <sodipodi:namedview
     pagecolor="#ffffff"
     bordercolor="#666666"
     borderopacity="1"
     objecttolerance="10"
     gridtolerance="10"
     guidetolerance="10"
     inkscape:pageopacity="0"
     inkscape:pageshadow="2"
     inkscape:window-width="1360"
     inkscape:window-height="714"
     id="namedview6"
     showgrid="true"
     inkscape:snap-global="false"
     inkscape:zoom="7.375"
     inkscape:cx="9.6108732"
     inkscape:cy="7.9567096"
     inkscape:window-x="0"
     inkscape:window-y="28"
     inkscape:window-maximized="1"
     inkscape:current-layer="svg4">
    <inkscape:grid
       type="xygrid"
       id="grid825" />
  </sodipodi:namedview>
  <path
     d="M 15 4 L 15 6.0507812 A 10 10 0 0 0 9.6757812 8.2617188 L 8.2226562 6.8066406 L 6.8066406 8.2226562 L 8.2617188 9.6757812 A 10 10 0 0 0 6.0605469 15 L 4 15 L 4 17 L 6.0507812 17 A 10 10 0 0 0 8.2617188 22.324219 L 6.8066406 23.777344 L 8.2226562 25.191406 L 9.6757812 23.738281 A 10 10 0 0 0 15 25.939453 L 15 28 L 15.011719 28 L 15.011719 24.941406 A 9 9 0 0 1 9.5429688 22.269531 A 9 9 0 0 1 7 16 A 9 9 0 0 1 9.7304688 9.5429688 A 9 9 0 0 1 16 7 A 9 9 0 0 1 22.457031 9.7304688 A 9 9 0 0 1 24.960938 15.242188 A 1.0271576 1.0271576 0 0 1 25.164062 15.398438 L 26.765625 17 L 28 17 L 28 15 L 25.949219 15 A 10 10 0 0 0 23.738281 9.6757812 L 25.193359 8.2226562 L 23.777344 6.8066406 L 22.324219 8.2617188 A 10 10 0 0 0 17 6.0605469 L 17 4 L 15 4 z M 13 11.5 L 13 20.5 L 20 16 L 13 11.5 z "
     id="path2"
     style="fill:#4d4d4d;fill-opacity:1;stroke:none" />
  <path
     inkscape:connector-curvature="0"
     style="fill:#f47750;stroke:none;fill-opacity:1"
     d="m 24.4375,16.125 -5.111328,5.111328 -3.28711,3.285156 V 28.125 h 3.603516 l 8.396484,-8.398438 z m -2.048828,3.490234 2.162109,2.160157 -3.175781,3.175781 v -0.675781 l -1.011719,0.02148 h -1.037109 v -1.035156 -0.585938 l 1.441406,-1.439453 z m -4.074219,4.074219 v 1.621094 h 1.035156 0.990235 l 0.02148,0.652344 -1.080078,1.082031 H 17.83984 l -0.71875,-0.720703 v -1.441407 z"
     id="path2-3"
     sodipodi:nodetypes="ccccccccccccccccccccccccccc" />
</svg>
